packages/clerk-js/src/v4/icons/cog-filled.svg

<svg viewBox="0 0 16 16" fill="none" xmlns="http://www.w3.org/2000/svg">
<path fill-rule="evenodd" clip-rule="evenodd" d="M9.48922 1.17094C9.1102 -0.390314 6.8898 -0.390314 6.51078 1.17094C6.26594 2.17949 5.11045 2.65811 4.22416 2.11809C2.85218 1.28212 1.28212 2.85218 2.11809 4.22416C2.65811 5.11045 2.17949 6.26593 1.17094 6.51078C-0.390314 6.8898 -0.390314 9.1102 1.17094 9.48922C2.17949 9.73407 2.65811 10.8896 2.11809 11.7758C1.28212 13.1478 2.85218 14.7179 4.22417 13.8819C5.11045 13.3419 6.26594 13.8205 6.51078 14.8291C6.8898 16.3903 9.1102 16.3903 9.48922 14.8291C9.73407 13.8205 10.8896 13.3419 11.7758 13.8819C13.1478 14.7179 14.7179 13.1478 13.8819 11.7758C13.3419 10.8896 13.8205 9.73407 14.8291 9.48922C16.3903 9.1102 16.3903 6.8898 14.8291 6.51078C13.8205 6.26593 13.3419 5.11045 13.8819 4.22416C14.7179 2.85218 13.1478 1.28212 11.7758 2.11809C10.8896 2.65811 9.73407 2.17949 9.48922 1.17094ZM8 11C9.65685 11 11 9.65685 11 8C11 6.34315 9.65685 5 8 5C6.34315 5 5 6.34315 5 8C5 9.65685 6.34315 11 8 11Z" fill="currentColor"/>
</svg>

<svg viewBox="0 0 16 16" fill="none" xmlns="http://www.w3.org/2000/svg"><path fill-rule="evenodd" clip-rule="evenodd" d="M9.49 1.17c-.38-1.56-2.6-1.56-2.98 0a1.532 1.532 0 0 1-2.286.948c-1.372-.836-2.942.734-2.106 2.106.54.886.061 2.042-.947 2.287-1.561.379-1.561 2.6 0 2.978a1.532 1.532 0 0 1 .947 2.287c-.836 1.372.734 2.942 2.106 2.106a1.532 1.532 0 0 1 2.287.947c.379 1.561 2.6 1.561 2.978 0a1.532 1.532 0 0 1 2.287-.947c1.372.836 2.942-.734 2.106-2.106a1.532 1.532 0 0 1 .947-2.287c1.561-.379 1.561-2.6 0-2.978a1.532 1.532 0 0 1-.947-2.287c.836-1.372-.734-2.942-2.106-2.106a1.532 1.532 0 0 1-2.287-.947ZM8 11a3 3 0 1 0 0-6 3 3 0 0 0 0 6Z" fill="currentColor"/></svg>
